rospo-icon-theme-classic-common/48x48/apps/bareftp.svg

<svg height="48" viewBox="0 0 48 48" width="48" xmlns="http://www.w3.org/2000/svg"><path d="m16.725326 5.0057428c-1.593856.065595-3.196115.6883979-4.33822 2.2402344l-5.4634533 7.4316398c-1.3011415 1.764801-1.1318272 4.356181-.088215 5.892578.7358388 1.083297 1.8771002 1.696846 3.1149714 2.052735v8.025391c-.0000004 3.839814 3.0865029 6.351562 6.5553589 6.351562h.93704c1.418028 0 2.720354-.508073 3.834414-1.269531l5.161562 7.023437c1.142103 1.551835 2.744367 2.174639 4.338219 2.240235.000632.000026.0013-.000026.002 0 1.76814.07319 3.566598-.517477 4.834184-2.240235l5.463453-7.43164.002-.0039c1.298272-1.764723 1.129161-4.353314.08626-5.888671-.735839-1.083297-1.8771-1.696847-3.114971-2.052735v-8.025391c-.000084-3.839824-3.086588-6.351569-6.555443-6.351569h-.93704c-1.418028 0-2.720354.508073-3.834414 1.269531l-5.161562-7.0234368c-1.267585-1.7227468-3.066065-2.3134182-4.834184-2.2402344h-.002z" opacity=".2"/><path d="m16.725326 4.0058594c-1.593856.065595-3.196115.6883979-4.33822 2.2402344l-5.4634533 7.4316402c-1.3011415 1.764801-1.1318272 4.356181-.088215 5.892578.7358388 1.083297 1.8771002 1.696846 3.1149714 2.052735v8.025391c-.0000004 3.839814 3.0865029 6.351562 6.5553589 6.351562h.93704c1.418028 0 2.720354-.508073 3.834414-1.269531l5.161562 7.023437c1.142103 1.551835 2.744367 2.174639 4.338219 2.240235.000632.000026.0013-.000026.002 0 1.76814.07319 3.566598-.517477 4.834184-2.240235l5.463453-7.43164.002-.0039c1.298272-1.764723 1.129161-4.353314.08626-5.888671-.735839-1.083297-1.8771-1.696847-3.114971-2.052735v-8.025391c-.000084-3.839824-3.086588-6.351569-6.555443-6.351569h-.93704c-1.418028 0-2.720354.508073-3.834414 1.269531l-5.161562-7.0234372c-1.267585-1.7227468-3.066065-2.3134182-4.834184-2.2402344h-.002z" fill="#4f4f4f"/><path d="m16.91801 9.0016532c-.524579.021523-.999727.2508486-1.26264.6094002l-5.444109 7.4341306c-.5995216.816162.148398 1.955889 1.344629 1.954703h2.445109v11.647877c0 1.303182 1.240046 2.352119 2.531661 2.352119h.934681c1.291614 0 2.554081-1.04913 2.531661-2.352119v-11.647877h2.445109c1.196231.0012 1.944149-1.138541 1.344629-1.954703l-5.444109-7.4341306c-.292214-.3986071-.843526-.6341074-1.426621-.6094002z" opacity=".2"/><path d="m16.91801 8.0017698c-.524579.021523-.999727.2508486-1.26264.6094002l-5.444109 7.434131c-.5995216.816162.148398 1.955889 1.344629 1.954703h2.445109v11.647877c0 1.303182 1.240046 2.352119 2.531661 2.352119h.934681c1.291614 0 2.554081-1.04913 2.531661-2.352119v-11.647877h2.445109c1.196231.0012 1.944149-1.138541 1.344629-1.954703l-5.444109-7.434131c-.292214-.3986071-.843526-.6341074-1.426621-.6094002z" fill="#ffd42b"/><path d="m30.53266 16.999876c-1.291614 0-2.554081 1.049129-2.531661 2.35212v11.64788h-2.445108c-1.196232-.0012-1.944152 1.138542-1.344629 1.954705l5.444109 7.434131c.262913.358552.73806.587878 1.26264.609401.583094.02471 1.134407-.210793 1.42662-.609401l5.444108-7.434131c.599522-.816163-.148398-1.955891-1.344629-1.954705h-2.445109v-11.64788c0-1.303184-1.240047-2.35212-2.53166-2.35212z" opacity=".2"/><path d="m30.53266 15.999993c-1.291614 0-2.554081 1.049129-2.531661 2.35212v11.64788h-2.445108c-1.196232-.0012-1.944152 1.138542-1.344629 1.954705l5.444109 7.434131c.262913.358552.73806.587878 1.26264.609401.583094.02471 1.134407-.210793 1.42662-.609401l5.444108-7.434131c.599522-.816163-.148398-1.955891-1.344629-1.954705h-2.445109v-11.64788c0-1.303184-1.240047-2.35212-2.53166-2.35212z" fill="#71d716"/><path d="m16.724609 4.0058594c-1.593856.065595-3.195785.6883978-4.33789 2.2402344l-5.4628909 7.4316402c-.7405784 1.004483-.9909086 2.273699-.8886719 3.466797.0790075-.874938.3533135-1.740664.8886719-2.466797l5.4628909-7.4316402c1.142105-1.5518366 2.744034-2.1746394 4.33789-2.2402344h.001953c1.76812-.0731838 3.5664.5174876 4.833985 2.2402344l5.162109 7.0234372c1.11406-.761458 2.415957-1.269531 3.833985-1.269531h.9375c3.468855 0 6.556556 2.511738 6.55664 6.351562v-1c-.000084-3.839823-3.087785-6.351562-6.55664-6.351562h-.9375c-1.418028 0-2.719925.508073-3.833985 1.269531l-5.162109-7.0234372c-1.267585-1.7227468-3.065865-2.3134182-4.833985-2.2402344zm21.326172 22.3710936v1c1.237871.355888 2.377443.969437 3.113281 2.052735.449129.661206.723173 1.519922.800782 2.421874.112557-1.250608-.186985-2.518245-.800782-3.421874-.735838-1.083298-1.87541-1.696847-3.113281-2.052735z" fill="#fff" opacity=".1"/></svg>

<svg xmlns="http://www.w3.org/2000/svg" width="48" height="48" version="1.1" viewBox="0 0 48 48">
 <path style="opacity:0.2" d="m 16.725326,5.0057428 c -1.593856,0.065595 -3.196115,0.6883979 -4.33822,2.2402344 L 6.9236527,14.677617 c -1.3011415,1.764801 -1.1318272,4.356181 -0.088215,5.892578 0.7358388,1.083297 1.8771002,1.696846 3.1149714,2.052735 l 0,8.025391 c -4e-7,3.839814 3.0865029,6.351562 6.5553589,6.351562 l 0.93704,0 c 1.418028,0 2.720354,-0.508073 3.834414,-1.269531 l 5.161562,7.023437 c 1.142103,1.551835 2.744367,2.174639 4.338219,2.240235 6.32e-4,2.6e-5 0.0013,-2.6e-5 0.002,0 1.76814,0.07319 3.566598,-0.517477 4.834184,-2.240235 l 5.463453,-7.43164 0.002,-0.0039 c 1.298272,-1.764723 1.129161,-4.353314 0.08626,-5.888671 -0.735839,-1.083297 -1.8771,-1.696847 -3.114971,-2.052735 l 0,-8.025391 c -8.4e-5,-3.839824 -3.086588,-6.351569 -6.555443,-6.351569 l -0.93704,0 c -1.418028,0 -2.720354,0.508073 -3.834414,1.269531 L 21.56147,7.2459772 C 20.293885,5.5232304 18.495405,4.932559 16.727286,5.0057428 l -0.002,0 z"/>
 <path style="fill:#4f4f4f" d="m 16.725326,4.0058594 c -1.593856,0.065595 -3.196115,0.6883979 -4.33822,2.2402344 L 6.9236527,13.677734 c -1.3011415,1.764801 -1.1318272,4.356181 -0.088215,5.892578 0.7358388,1.083297 1.8771002,1.696846 3.1149714,2.052735 l 0,8.025391 C 9.9504087,33.488252 13.036912,36 16.505768,36 l 0.93704,0 c 1.418028,0 2.720354,-0.508073 3.834414,-1.269531 l 5.161562,7.023437 c 1.142103,1.551835 2.744367,2.174639 4.338219,2.240235 6.32e-4,2.6e-5 0.0013,-2.6e-5 0.002,0 1.76814,0.07319 3.566598,-0.517477 4.834184,-2.240235 l 5.463453,-7.43164 0.002,-0.0039 c 1.298272,-1.764723 1.129161,-4.353314 0.08626,-5.888671 -0.735839,-1.083297 -1.8771,-1.696847 -3.114971,-2.052735 l 0,-8.025391 C 38.049845,14.511745 34.963341,12 31.494486,12 l -0.93704,0 c -1.418028,0 -2.720354,0.508073 -3.834414,1.269531 L 21.56147,6.2460938 C 20.293885,4.523347 18.495405,3.9326756 16.727286,4.0058594 l -0.002,0 z"/>
 <path style="opacity:0.2" d="m 16.91801,9.0016532 c -0.524579,0.021523 -0.999727,0.2508486 -1.26264,0.6094002 l -5.444109,7.4341306 c -0.5995216,0.816162 0.148398,1.955889 1.344629,1.954703 l 2.445109,0 0,11.647877 c 0,1.303182 1.240046,2.352119 2.531661,2.352119 l 0.934681,0 c 1.291614,0 2.554081,-1.04913 2.531661,-2.352119 l 0,-11.647877 2.445109,0 c 1.196231,0.0012 1.944149,-1.138541 1.344629,-1.954703 L 18.344631,9.6110534 C 18.052417,9.2124463 17.501105,8.976946 16.91801,9.0016532 Z"/>
 <path style="fill:#ffd42b" d="M 16.91801,8.0017698 C 16.393431,8.0232928 15.918283,8.2526184 15.65537,8.61117 l -5.444109,7.434131 c -0.5995216,0.816162 0.148398,1.955889 1.344629,1.954703 l 2.445109,0 0,11.647877 C 14.000999,30.951063 15.241045,32 16.53266,32 l 0.934681,0 c 1.291614,0 2.554081,-1.04913 2.531661,-2.352119 l 0,-11.647877 2.445109,0 c 1.196231,0.0012 1.944149,-1.138541 1.344629,-1.954703 L 18.344631,8.61117 C 18.052417,8.2125629 17.501105,7.9770626 16.91801,8.0017698 Z"/>
 <path style="opacity:0.2" d="m 30.53266,16.999876 c -1.291614,0 -2.554081,1.049129 -2.531661,2.35212 l 0,11.64788 -2.445108,0 c -1.196232,-0.0012 -1.944152,1.138542 -1.344629,1.954705 l 5.444109,7.434131 c 0.262913,0.358552 0.73806,0.587878 1.26264,0.609401 0.583094,0.02471 1.134407,-0.210793 1.42662,-0.609401 l 5.444108,-7.434131 C 38.388261,32.138418 37.640341,30.99869 36.44411,30.999876 l -2.445109,0 0,-11.64788 c 0,-1.303184 -1.240047,-2.35212 -2.53166,-2.35212 z"/>
 <path style="fill:#71d716" d="m 30.53266,15.999993 c -1.291614,0 -2.554081,1.049129 -2.531661,2.35212 l 0,11.64788 -2.445108,0 c -1.196232,-0.0012 -1.944152,1.138542 -1.344629,1.954705 l 5.444109,7.434131 c 0.262913,0.358552 0.73806,0.587878 1.26264,0.609401 0.583094,0.02471 1.134407,-0.210793 1.42662,-0.609401 l 5.444108,-7.434131 c 0.599522,-0.816163 -0.148398,-1.955891 -1.344629,-1.954705 l -2.445109,0 0,-11.64788 c 0,-1.303184 -1.240047,-2.35212 -2.53166,-2.35212 z"/>
 <path style="opacity:0.1;fill:#ffffff" d="M 16.724609 4.0058594 C 15.130753 4.0714544 13.528824 4.6942572 12.386719 6.2460938 L 6.9238281 13.677734 C 6.1832497 14.682217 5.9329195 15.951433 6.0351562 17.144531 C 6.1141637 16.269593 6.3884697 15.403867 6.9238281 14.677734 L 12.386719 7.2460938 C 13.528824 5.6942572 15.130753 5.0714544 16.724609 5.0058594 L 16.726562 5.0058594 C 18.494682 4.9326756 20.292962 5.523347 21.560547 7.2460938 L 26.722656 14.269531 C 27.836716 13.508073 29.138613 13 30.556641 13 L 31.494141 13 C 34.962996 13 38.050697 15.511738 38.050781 19.351562 L 38.050781 18.351562 C 38.050697 14.511739 34.962996 12 31.494141 12 L 30.556641 12 C 29.138613 12 27.836716 12.508073 26.722656 13.269531 L 21.560547 6.2460938 C 20.292962 4.523347 18.494682 3.9326756 16.726562 4.0058594 L 16.724609 4.0058594 z M 38.050781 26.376953 L 38.050781 27.376953 C 39.288652 27.732841 40.428224 28.34639 41.164062 29.429688 C 41.613191 30.090894 41.887235 30.94961 41.964844 31.851562 C 42.077401 30.600954 41.777859 29.333317 41.164062 28.429688 C 40.428224 27.34639 39.288652 26.732841 38.050781 26.376953 z"/>
</svg>
